X: 8
T: The Rose In The Heather
R: jig
M: 6/8
L: 1/8
K: Dmaj
|:"D"~F3 "A"~E3|"D"DFA BAF|"G"ABd ede|"A"fdB AFE|
"D"~F3 "A"~E3|"D"DFA BAF|"G"AdB "D"AFE|1 "A"FDC "D"D2A:|2 "A"FDC "D"D2e||
|:"D"fdB ABd|"D"f2a afd|"G"g2g fed|"Em"Bee "A"efg|
"D"fdB ABd|"D"faa afa|"G"bag "D"fge|1 "A"fdc "D"d2 e:|2 "A"fdc "D"dAG||

%%newpage
%% header "Pizza Wizards - Disconnect / Sailor's Wife		$P"

